X:5
T:Golden Slippers
C:Tradaditional
N: Transcribed by Mike Stangeland
R:bluegrass
L:1/8
Q:1/4=206
M:4/4
K:A
[eA][eB] |: "A"[e2c2] cd [ec][eB] [eA][eB] | [e2c2] cd [ec][eB] [eA][eB] | 
[e2c2] [e2c2] [e2d2] [ec][ec] | "E"[e2c2] [e2B2] [e2B2] GA | [e2B2] [eB][ec] [eB]A GA | 
[e2B2] [eB][ec] [eB]A GA | [e2B2] [e2d2] [e2c2] [eB][ec] |1 [e2B2] [e2A2] [e2A2] AB :|2 [e2B2] [e2A2] [e4A4] |] 
"A"[AE][AE] [AE][AE] [A2E2] AB | [e2c2] (3BcB [e2A2] [A2E2] | "D"[AF][AF] [AF][AF] [A2F2] Bc | 
[f2d2] c2 B2 A2 | "E"[B3G3]F G2 A2 | [eB]G [eB][ec] [e2B2] E2 | "A"[AA]A [eA]e [e2A2] B2 | 
{=c}^c2 [e2B2] [e2A2] [A2F2] | [A2E2] [AE]F [A2E2] AB | [e2c2] [e2B2] [e2A2] [A2E2] | 
{E}"D"F[AF] [AF][AF] [A2F2] Bc | [f2d2] c2 B2 A2 | "E"[B2G2] GF G2 A2 | [e4B4] [e4d4] | 
"A"[e2c2] [ec][ed] [e2c2] [e2B2] | [e2A2] [eA][eA] [e4A4] | 

